X:1
T:22. Country Festival
T:22. Country Festival
T:Book 2 (after Slovakian Folksongs)
T:For Children, Sz.42 
T:Béla Bartók
%%score { ( 1 4 ) | ( 2 3 ) }
L:1/8
Q:1/4=130
M:2/4
K:C
V:1 treble nm="Piano" snm="Pno."
V:4 treble 
V:2 bass 
V:3 bass 
V:1
"^Molto Allegro" z4 | z4 | z4 | z4 | z4 | z4 | z4 | z4 |!f!!>(! c(cdc | BA!>)! !tenuto!G2) | %10
!<(! (GcBc)!<)! | !tenuto!d2 !tenuto!d2 |!>(! c(cdc | BA !tenuto!G2)!>)! |!<(! .c(cB^G)!<)! | %15
 !tenuto!A2 !tenuto!A2 | z4 | z4 | z4 | z4 | z4 |!>(! g(gag | ^fe!>)! d2) |!<(! (dg^fg) | %24
 !tenuto!a2!<)! !tenuto!a2 |!>(! !tenuto!g(gag | ^fe!>)! d2) | !tenuto!g!<(!(g^f!<)!^d) | %28
 !tenuto!e2 !tenuto!e2 | z4 | z4 | z4 | z4 | z4 | z4 | z4 | !tenuto!F(FGF | ED C2) | (CFEF) | %39
 !tenuto!G2 !tenuto!G2 | !tenuto!F(FGF | ED !tenuto!C2) |"_molto cresc." !tenuto!F(FE^C) | %43
 !tenuto!D2 !tenuto!D2 | z4 | z4 | z4 | z (!>!E D2 | z !>!E D2 | z !>!EDG | EA, !tenuto!D2) | %51
"_sempre cresc. ed accel." z ((!>!EDG |[Q:1/4=135]"^T" EA, !>!D2)) | z[Q:1/4=138]"^T" (!>!edg | %54
 eA !>!d2) | z[Q:1/4=140]"^T" (!>!edg) | (A!>!edg) |[Q:1/4=144]"^T" (A!>!edg) | (A!>!edg) | %59
[Q:1/4=130]"^a tempo"!ff! (ed) e2- | !fermata!e4 |] %61
V:2
!f! ([E,,A,,]!>(!E,D,!>)!G,, | A,,!>(!E,D,!>)!G,, | [E,,A,,]!<(!E,D,G,!<)! |!>(! E,A,,D,G,,)!>)! | %4
 (A,,!>(!E,D,!>)!G,, | A,,!>(!E,D,!>)!G,,) | (A,,!<(!E,D,G,!<)! |!>(! E,A,,D,G,,)!>)! | %8
 (A,,E,F,D, | G,=F,E,D,) | E,C,^F,D, | G,4 | (E,C,^F,D, | G,4 | (C,^F,^G,E,)) | (A,!>(!E,F,!>)!D, | %16
 A,,E,^F,D,) | (E,!>(!G,F,!>)!D, | A,,E,^F,D,) | (E,!>(!G,F,!>)!D, | E,!>(!^G,F,!>)!D,) | %21
 E,B,^CA, | !^!D4 | B,G,^CA, | !^!D4 | B,G,^CA, | !^!D4 | (G,^C^DB,) | EB,^CA, | x2 C2 | B,4 | %31
 x A, G,2 | ^F,4 | A,,"^poco dim."E,D,G,, | (F,,C,B,,E,,) | (D,,A,,G,,!mf!C,,) |!p! (D,,A,,B,,G,, | %37
 !>!C,_B,,A,,G,,) | (A,,F,,B,,G,, | !>!C,_B,,A,,G,,) | (A,,F,,B,,G,, | !>!C,_B,,A,,G,,) | %42
 (F,,B,,^C,A,,) | (D,A,,B,,G,, | A,,D,B,,G,,) |!f! (A,,E,D,G, | E,A,,D,G,,) | (A,,E,D,G,, | %48
 A,,E,D,G,, | A,,E,D,G, | E,A,,D,G,,) | (A,,E,D,G, | E,A,,D,G,,) | (A,,E,D,G, | E,A,,D,G,,) | %55
 (A,,E,D,G,) | (A,,E,D,G,) | (A,,E,D,G,) | (A,,E,D,G,) | (E,D,) E,2- | !fermata!E,4 |] %61
V:3
 x4 | x4 | x4 | x4 | x4 | x4 | x4 | x4 | x4 | G,4 | x4 | G,F,E,D, | x4 | G,F,E,D, | x4 | x4 | x4 | %17
 x4 | x4 | x4 | x4 | x4 | DCB,A, | x4 | DCB,A, | x4 | DCB,A, | x4 | x4 | G,DCF, | (B,^F,G,E, | %31
 D,A,G,C,) | ^F,^C,D,B,, | x4 | x4 | x4 | x4 | C,4 | x4 | C,4 | x4 | C,4 | x4 | x4 | x4 | x4 | x4 | %47
 x4 | x4 | x4 | x4 | x4 | x4 | x4 | x4 | x4 | x4 | x4 | x4 | A,,2 A,,2- | A,,4 |] %61
V:4
 x4 | x4 | x4 | x4 | x4 | x4 | x4 | x4 | x4 | x4 | x4 | x4 | x4 | x4 | x4 | x4 | x4 | x4 | x4 | %19
 x4 | x4 | x4 | x4 | x4 | x4 | x4 | x4 | x4 | x4 | x4 | x4 | x4 | x4 | x4 | x4 | x4 | x4 | x4 | %38
 x4 | x4 | x4 | x4 | x4 | x4 | x4 | x4 | x4 | x4 | x4 | x4 | x4 | x4 | x4 | x4 | x4 | x4 | x4 | %57
 x4 | x4 | A2 A2- | A4 |] %61

